X: 1
T: Sandy MacIntyre's Trip to Boston
C: John Campbell (1960s)
O: Cape Breton
Z: John Chambers (from handwritten transcription by B.McOwen)
Z: From Jeff Rooney jeff.rooney:alcatel.com
M: 4/4
L: 1/8
K: A
F \
| "A"E2 CE A,ECE | Acef ecAe | "D"f2af "A"ecAc | "Bm"dBcA "E7"BAFA |
| "A"E2 CE A,ECE | Acef ecAe | "D"f2af "A"ecBc | "E7"dfec "A"A3 :|
|: f \
| "A"eA~c2 ecBc | "A7"ABce "D"f3a | "A"eA~c2 "F#m"ecBc | "Bm"dfec "E7"B3f |
| "A"eA~c2 ecBc | "A7"ABce "D"f3g | agfe fgaf | "E7"ecBc "A"A3 :|
